library/css/icons/svgs/fi-shield.svg

<svg xmlns="http://www.w3.org/2000/svg" width="100" height="100" viewBox="0 0 100 100"><path d="M50.027 10.459l-.018-.032-33.606 19.404.076.132v22.893h.014c.286 19.111 14.859 34.755 33.519 36.718 18.66-1.962 33.234-17.606 33.519-36.718v-22.903l.066-.114-33.57-19.38zm-.015 69.097v-27.879h-23.577v-16.026l23.577-13.611v29.637h23.563v1.179h.017c-.278 13.593-10.439 24.798-23.58 26.7z"/></svg>

<?xml version="1.0" encoding="utf-8"?>
<!-- Generator: Adobe Illustrator 17.0.0, SVG Export Plug-In . SVG Version: 6.00 Build 0)  -->
<!DOCTYPE svg PUBLIC "-//W3C//DTD SVG 1.1//EN" "http://www.w3.org/Graphics/SVG/1.1/DTD/svg11.dtd">
<svg version="1.1" id="Layer_1" xmlns="http://www.w3.org/2000/svg" xmlns:xlink="http://www.w3.org/1999/xlink" x="0px" y="0px"
	 width="100px" height="100px" viewBox="0 0 100 100" enable-background="new 0 0 100 100" xml:space="preserve">
<g>
	<path d="M50.027,10.459l-0.018-0.032L16.403,29.831l0.076,0.132v22.893h0.014c0.286,19.111,14.859,34.755,33.519,36.718
		c18.66-1.962,33.234-17.606,33.519-36.718V29.953l0.066-0.114L50.027,10.459z M50.012,79.556V51.677H26.435V35.651L50.012,22.04
		v29.637h23.563v1.179h0.017C73.314,66.449,63.153,77.654,50.012,79.556z"/>
</g>
</svg>
